X:1
T:Suite from "The Mount of Olives"
T:Suite from "The Mount of Olives"
T:For Three Trombones II. Duet. Have Peace With All Heaviness 
T:L. van Beethoven arr. Allen Ostrander Edited by Kristopher Ring 
T:1950 Edition Musicus - a division of Ensemble Publications
T:1950 Edition Musicus - a division of Ensemble Publications
T:1950 Edition Musicus - a division of Ensemble Publications
T:1950 Edition Musicus - a division of Ensemble Publications
C:L. van Beethoven
Z:1950 Edition Musicus - a division of Ensemble Publications
%%score 1 2 3
L:1/8
Q:1/8=76
M:3/4
K:G
V:1 bass nm="Tenor Trombone" snm="T. Tbn."
V:2 bass nm="Tenor Trombone" snm="T. Tbn."
V:3 bass nm="Bass Trombone" snm="B. Tbn."
V:1
"^Adagio molto"!f! B,,7/4!p!B,,/4 G,B, D z |!f! E,7/4!p!E,/4 G,C E z | D z2"_cresc." E B,A,/C/ | %3
!p! (C2 B,) z z D |]"^A"!mf!"_solo" D>B, G,2- G,/G,/G,/A,/ | CB, z2 z/ G,/A,/B,/ | %6
 D!breath!C z C C(D/E/) | ((E F,2) (A,/D/)) (D/C/)(B,/^A,/) | B,2 z4 | z2 z2 z A, | %10
 B,B, !breath!E>B, (A,/G,/)(F,/E,/) | ^D,F, z F, B,>A, | (A,2 ^G,)"_cresc."G,A,B, | %13
!>(! (B,2 !breath!C)C^CC!>)! |"_cresc." ((D4 D/)E/)(F/G/) | (F/E/)(D/C/) (B,(D) (D/)C/)(B,/A,/) | %16
"^B" B,7/4D,/4 G,B, D z | =F,7/4F,/4 B,D =F z | E,7/4E,/4 G,C E z | %19
 !tenuto!A, z !tenuto!C z !tenuto!F, z |"_(solo)" G,(G,"_cresc."B,G,) (F,3/2G,/4A,/4 | %21
 G,)(D,G,B,) (A,3/2B,/4C/4 |!p! B,/)B,/B,/B,/ B,/B,/B,/B,/ G,/G,/G,/G,/ | %23
 B,/B,/B,/B,/ G,/G,/G,/G,/ C/C/A,/A,/ | B,/B,/B,/B,/ B,/B,/B,/B,/ F,/F,/F,/F,/ | %25
 B,/B,/B,/B,/ D/D/D/D/ B,/B,/B,/B,/ | G,/G,/G,/G,/ G,/G,/G,/G,/ G,/G,/G,/G,/ | %27
 F,/F,/F,/F,/ C/C/C/C/ C/C/C/C/ | B,/B,/B,/B,/ F,/A,/A,/A,/ ^C/C/G,/G,/ | F, z z"_Duett" C C>B, | %30
"^C" (B,A,) z A, D(E/C/) | ^A,B, z"_cresc." B,B,B, | (!>!^C G2) (A/G/) (F/E/)(D/C/) | %33
 D z z2 z/ A,/B,/C/ | !>!D>B, G,G, (G,/B,/)(D/=F/) | (=F>E) !breath!EE (E/D/)(C/B,/) | %36
 (B,D/C/) !breath!C"_cresc."A,B,C |"^D" (D4 ^C(=C) | !breath!C)B, A,>A, D>D | G,2 z2 z B, | %40
 D>C C(C/B,/) (B,/A,/)(G,/F,/) | A,G, z"_cresc." B,D=F | E2 z2 z/ C/A,/B,/ | %43
 !breath!C^C (D/G)B,/ (D/=C/)(B,/A,/) | B,2 z2!f! C2 | B,2 z2 D2- | D2 z!>(! (A,B,C)!>)! | %47
 (C2!p! !tenuto!B,) z z2 |] %48
V:2
!f! !tenuto!B, z z!p! (.B, .B,.B,) |!f! !tenuto!C z z!p! (.E, .C.C) | %2
 (C/B,/A,/G,/)"_cresc." (F,/E,/C/A,/) (G,F,/G,/4A,/4) |!p! (A,2 G,) z z2 |] B,7/4D,/4 G,B, D z | %5
 =F,7/4F,/4 B,D =F z | E,7/4E,/4 G,C E z | !tenuto!A, z !tenuto!C z !tenuto!F, z | %8
"_solo" !breath!G,(G,B,G,)"_cresc." (F,3/2G,/4A,/4 | !breath!G,)(D,G,A,) (A,3/2B,/4C/4 | %10
 B,) B,2 (E, C,E,) | ^D,3 D,E,D, | B,,3"_cresc." E,E,(E, |!>(! (!>!E,)^G, !breath!A,)!p!A, EE!>)! | %14
 D"_cresc."(F,G,CB,G,) |!p! E,E, z B, z!mf!"_solo" D | D3/2(C/4B,/4) A,G, G,7/4A,/4 | %17
 CB, z2 G,(A,/B,/) | D!breath!C z C C(D/E/) | ((E F,2) (A,/D/)) (D/C/)(B,/^A,/) | B,2 z2 z2 | %21
 z4 z!mf! A, |"_solo" B,B, z2 B,B, | E3 (C/B,/) (A,/G,/)(F,/E,/) | ^D,F, z F, B,>A, | %25
"_cresc." (A,^G,- G,/B,/)(B,/E/) E>D | D^C z CCC | D2 !breath!^D3 D | %28
 (E/B,/)(G/E/) D(E/F/) (F/E/)(D/^C/) | D2 z"_Duett" A, A,>G, | (G,F,) z F, B,(C/A,/) | %31
 F,G, z"_cresc." G,G,G, | (!>!G, E2) ^CCG, | F, z z2 z2 | z2 z B, B,(B,/D/) | %35
 (D>C) !breath!CC (C/B,/)(A,/^G,/) | (^G,B,/A,/) !breath!A,"_cresc."F,=G,A, | %37
 ((B, A,2 ^G,) =G,F,-) | F,G, C>C F,>F, | G,2 z2 z!p! D | =F>E E(E/D/) (D/C/)(B,/A,/) | %41
 CB, z"_cresc." G,B,D | C2 z2 z/ A,/F,/G,/ | !breath!A,^A, B,>G, (B,/A,/)(G,/F,/) | %44
 !breath!G,!f!(G,B,G,) (F,3/2G,/4A,/4 | !breath!G,)(D,G,B,) (A,3/2B,/4C/4) | %46
 (C/!>(!B,/A,/G,/) (F,/E,/C/A,/) (G,F,/G,/4A,/4)!>)! | (A,2!p! !tenuto!G,) z z2 |] %48
V:3
!f! !tenuto!G,, z!p! G,(.G,.G,.G,) |!f! !tenuto!G,, z!p! G,(.G,.G,.G,) | %2
 G,,"_cresc."(B,,C,A,,) D,2 |!p! G,,2- G,,(G,D,B,,) |] G,, z G,G, B, z | G,, z G,B, D z | %6
 G,, z E,E, G, z | !tenuto!C, z !tenuto!D, z !tenuto!D, z | (G,,4"_cresc." A,,)A,, | B,,4 G,,G,, | %10
 G,,3 (G,,A,,C,) | B,,2 (B,,A,,G,,F,,) | E,,3"_cresc." (D,C,^G,,) |!>(! A,,3!p! (A,G,)(G,!>)! | %14
 (F,)C,B,,"_cresc."F,,G,,B,,) |!p! (C,A,,) D,G, D,F,, | G,, z B,,D, B, z | G,, z G,B, B, z | %18
 G,, z E,E, G, z | !tenuto!C, z !tenuto!D, z !tenuto!D, z |"_cresc." (G,,4 A,,)A,, | %21
 (B,,4 F,,)F,, |!p! G,,/G,/G,/G,/ G,/G,/G,/G,/ E,/E,/E,/E,/ | %23
 G,,/G,/G,/G,/ E,/E,/E,/E,/ A,,/A,,/C,/C,/ | B,,/^D,/D,/D,/ D,/D,/D,/D,/ D,/D,/D,/D,/ | %25
 E,/E,/E,/E,/ E,/E,/E,/E,/ ^G,,/G,,/G,,/G,,/ | A,,/A,,/A,,/A,,/ A,/A,/A,/A,/ ^A,,/A,,/A,,/A,,/ | %27
 B,,/B,,/B,,/B,,/ A,,/F,/F,/F,/ A,,/F,/F,/F,/ | G,/G,/E,/E,/ A,,/F,/F,/F,/ A,,/A,,/A,,/A,,/ | %29
!f! D,7/4D,/4 D, z z2 | !>!D7/4D,/4 D, z z2 | D7/4!p!D,/4"_cresc." D,D, D,D, | %32
 D,/D,/D,/D,/ D,E,G,A,, | D,"_solo"E (3E/D/C/(3B,/A,/G,/ (3F,/G,/E,/(3D,/E,/C,/ | %34
 B,,/B,B,G,G,G,G,/ | G,/!breath!G,G,G,G,/ E,E, | A,,A,, A,,"_cresc."C,B,,A,, | G,,(F,=F,)E, A,,D, | %38
 (^D,E,) C,E, =D,D, | G,,2 G,,2 G,,2 |!p! G,,2"_(solo)" G,,2 G,,2 | G,,2"_cresc." G,,2 G,,2 | %42
 G,,!pp!G,,- G,,G,,- G,, z | z2!f! D,D z!p! D, |!f! G,,4 A,,A,, | B,,3 G, F,F, | %46
 G,!>(!(B,,C,A,,D,D,!>)! |!p! !tenuto!G,,3) z z2 |] %48

